X: 41481
T: Tyrell's Pass
R: jig
M: 6/8
K: Gmajor
|:B2 e edB|edB {c}BAG|~B2e edB|edB ~A3|
~B3 edB|edB {c}BAG|A{c}BG{c}AGE|DGF ~G2 A|
Bz e edB|edB {c}BAG|~B2e edB|edB ~A3|
B z eedB|edB {c}BAG|A{c}BG {c/}AGE|DGF ~G2 A|
B zg ged|{c'}ged {c/}BAG|G (3Bcd Jg2e|edB ~A3|
~B3 gz f|ged {c}BAG|A{c/}BG {c/}AGE|DGF ~G2 A|
B zg ged|{c'}ged {c}BAG|G (3Bcd ged|{a}edB ~A3|
~B3 ged|{a}ged {c}BAG|A{c}BG {c}AGE|DGF ~G2 A:|

